/* XPM */
static char *_9083bff1d794380e3598444abfb9045y5dvGui0pwxtZEyT[] = {
/* columns rows colors chars-per-pixel */
"32 32 119 2 ",
"   c None",
".  c #465E1A",
"X  c #485F1C",
"o  c #495F1D",
"O  c #48611A",
"+  c #49611A",
"@  c #49601B",
"#  c #48601C",
"$  c #495E20",
"%  c #6F814D",
"&  c #EF9100",
"*  c #EF9E0D",
"=  c #F09400",
"-  c #F09500",
";  c #F09B08",
":  c #F2A213",
">  c #F1AF2D",
",  c #F3B02F",
"<  c #F3BE51",
"1  c #F4CB6C",
"2  c #F6D17C",
"3  c #D8CC97",
"4  c #F4D187",
"5  c #F7DB9E",
"6  c #D2D3BE",
"7  c #EEDEB4",
"8  c #F4E4BB",
"9  c #D6D5C1",
"0  c #DAD9C7",
"q  c #D5D9CA",
"w  c #D9DDCF",
"e  c #F8E7C0",
"r  c #F3E8C5",
"t  c #E6E6D9",
"y  c #EEEBDF",
"u  c #F3EDDD",
"i  c #F9F0D5",
"p  c #EBEDE4",
"a  c #EFEFE4",
"s  c #F3EEE0",
"d  c #F2EFE3",
"f  c #F2EFE5",
"g  c #F4EFE6",
"h  c #F6F1E3",
"j  c #F5F0E4",
"k  c #F6F1E5",
"l  c #F5F2E5",
"z  c #F7F2E4",
"x  c #F4F0E6",
"c  c #F5F0E6",
"v  c #F5F1E6",
"b  c #F5F2E6",
"n  c #F6F2E6",
"m  c #F6F2E7",
"M  c #F9F3E1",
"N  c #F9F4E2",
"B  c #F4F1E8",
"V  c #F7F3E8",
"C  c #F6F3E9",
"Z  c #F7F3E9",
"A  c #F5F2EB",
"S  c #F7F4E8",
"D  c #F7F4E9",
"F  c #F6F5EA",
"G  c #F7F4EB",
"H  c #F3F2EC",
"J  c #F5F4ED",
"K  c #F6F4EC",
"L  c #F5F4EF",
"P  c #F8F4EB",
"I  c #F8F5EB",
"U  c #F8F6EB",
"Y  c #F8F5EC",
"T  c #F9F6EC",
"R  c #F8F6ED",
"E  c #F8F6EF",
"W  c #F9F6EF",
"Q  c #F7F5F0",
"!  c #F6F5F1",
"~  c #F7F5F2",
"^  c #F6F5F3",
"/  c #F6F6F3",
"(  c #F9F6F0",
")  c #F8F7F1",
"_  c #F9F7F1",
"`  c #F9F8F1",
"'  c #FAF8F1",
"]  c #FAF9F1",
"[  c #F8F8F2",
"{  c #F9F8F3",
"}  c #FBF9F2",
"|  c #FAF8F3",
" . c #FAF9F3",
".. c #FBF9F3",
"X. c #F9F8F4",
"o. c #F9F8F5",
"O. c #FAF9F4",
"+. c #FAF9F5",
"@. c #FBFAF5",
"#. c #F8F8F6",
"$. c #F9F8F6",
"%. c #F9F9F6",
"&. c #FAF9F6",
"*. c #FAFAF6",
"=. c #FAFAF7",
"-. c #FBFAF7",
";. c #FAF9F8",
":. c #FAFAF9",
">. c #FBFAF9",
",. c #FCFBF8",
"<. c #FCFBF9",
"1. c #FDFCF8",
"2. c #FCFCF9",
"3. c #FCFCFA",
"4. c #FDFCFA",
"5. c #FCFCFB",
"6. c gray99",
"7. c #FDFDFC",
"8. c #FEFEFC",
/* pixels */
"                                                                ",
"                                                                ",
"                                                                ",
"                                                                ",
"                                A                               ",
"                        A ) :.$.U v f                           ",
"                      Q $.$.7.$.A v K 2.K                       ",
"                    v A $.$.7.:.v S 2.[ v v                     ",
"                    A A Y $.N 7 r [ [ U ) $.                    ",
"                  $.2.2.$.M < * , 8 Q $.$.[                     ",
"                  K ) $.:.e : & - 4 $.Y S v                     ",
"                    $.$.:.i > - ; 5 [ S v v v                   ",
"                    Y [ $.[ 3 1 2 u [ 7.2.Q                     ",
"                  g A [ ,.a p U [ Q s U [ $.                    ",
"                    Q ,.K t 2.S Y 2.H   v                       ",
"                      Y 0 w 2.v h $.$.                          ",
"                          q Y s 9 y                             ",
"                          %   6                                 ",
"                          .                                     ",
"                          @                                     ",
"                                                                ",
"                            o                                   ",
"                            $                                   ",
"                              #                                 ",
"                                o                               ",
"                                o                               ",
"                                                                ",
"                                                                ",
"                                                                ",
"                                #                               ",
"                                @                               ",
"                                @                               "
};
